elusive/adjust-alt.svg

<?xml version="1.0" encoding="UTF-8" standalone="no"?>
<!-- Generator: IcoMoon.io -->

<svg
   xmlns:dc="http://purl.org/dc/elements/1.1/"
   xmlns:cc="http://creativecommons.org/ns#"
   xmlns:rdf="http://www.w3.org/1999/02/22-rdf-syntax-ns#"
   xmlns:svg="http://www.w3.org/2000/svg"
   xmlns="http://www.w3.org/2000/svg"
   xmlns:sodipodi="http://sodipodi.sourceforge.net/DTD/sodipodi-0.dtd"
   xmlns:inkscape="http://www.inkscape.org/namespaces/inkscape"
   id="svg2"
   version="1.1"
   data-tags="remove-circle, cancel, close, remove, delete"
   height="1200"
   width="1200"
   data-du=""
   viewBox="0 0 1200 1200"
   inkscape:version="0.48.4 r9939"
   sodipodi:docname="adjust-alt.svg">
  <defs
     id="defs33" />
  <sodipodi:namedview
     pagecolor="#ffffff"
     bordercolor="#666666"
     borderopacity="1"
     objecttolerance="10"
     gridtolerance="10"
     guidetolerance="10"
     inkscape:pageopacity="0"
     inkscape:pageshadow="2"
     inkscape:window-width="1535"
     inkscape:window-height="876"
     id="namedview31"
     showgrid="false"
     inkscape:zoom="0.26339286"
     inkscape:cx="-67.796606"
     inkscape:cy="448"
     inkscape:window-x="65"
     inkscape:window-y="24"
     inkscape:window-maximized="1"
     inkscape:current-layer="svg2" />
  <metadata
     id="metadata62">
    <rdf:RDF>
      <cc:Work
         rdf:about="">
        <dc:format>image/svg+xml</dc:format>
        <dc:type
           rdf:resource="http://purl.org/dc/dcmitype/StillImage" />
        <dc:title />
      </cc:Work>
    </rdf:RDF>
  </metadata>
  <path
     style="fill:#000000"
     d="M 104.3125 0 L 104.3125 699.84375 L 0 699.84375 L 0 953.90625 L 367.28125 953.90625 L 367.28125 699.84375 L 262.96875 699.84375 L 262.96875 0 L 104.3125 0 z M 520.75 0 L 520.75 451.75 L 416.34375 451.75 L 416.34375 705.8125 L 783.65625 705.8125 L 783.65625 451.75 L 679.3125 451.75 L 679.3125 0 L 520.75 0 z M 937.03125 0 L 937.03125 201.625 L 832.71875 201.625 L 832.71875 455.6875 L 1200 455.6875 L 1200 201.625 L 1095.6875 201.625 L 1095.6875 0 L 937.03125 0 z M 885.9375 252.03125 L 1146.7812 252.03125 L 1146.7812 302.46875 L 885.9375 302.46875 L 885.9375 252.03125 z M 937.03125 498.125 L 937.03125 1200 L 1095.6875 1200 L 1095.6875 498.125 L 937.03125 498.125 z M 469.59375 502.15625 L 730.40625 502.15625 L 730.40625 552.59375 L 469.59375 552.59375 L 469.59375 502.15625 z M 520.75 746.1875 L 520.75 1200 L 679.3125 1200 L 679.3125 746.1875 L 520.75 746.1875 z M 53.21875 750.21875 L 314.0625 750.21875 L 314.0625 800.65625 L 53.21875 800.65625 L 53.21875 750.21875 z M 104.34375 996.3125 L 104.34375 1200 L 263 1200 L 263 996.3125 L 104.34375 996.3125 z "
     id="path2998" />
</svg>

<?xml version="1.0" encoding="utf-8"?>
<!-- Generator: Adobe Illustrator 16.0.0, SVG Export Plug-In . SVG Version: 6.00 Build 0)  -->
<!DOCTYPE svg PUBLIC "-//W3C//DTD SVG 1.1//EN" "http://www.w3.org/Graphics/SVG/1.1/DTD/svg11.dtd">
<svg version="1.1"
	 id="svg2" xmlns:dc="http://purl.org/dc/elements/1.1/" xmlns:cc="http://creativecommons.org/ns#" xmlns:rdf="http://www.w3.org/1999/02/22-rdf-syntax-ns#" xmlns:svg="http://www.w3.org/2000/svg" xmlns:sodipodi="http://sodipodi.sourceforge.net/DTD/sodipodi-0.dtd" xmlns:inkscape="http://www.inkscape.org/namespaces/inkscape" sodipodi:docname="adjust-alt.svg" inkscape:version="0.48.4 r9939"
	 xmlns="http://www.w3.org/2000/svg" xmlns:xlink="http://www.w3.org/1999/xlink" x="0px" y="0px" width="1200px" height="1200px"
	 viewBox="0 0 1200 1200" enable-background="new 0 0 1200 1200" xml:space="preserve">
<sodipodi:namedview  inkscape:cy="448" inkscape:cx="-67.796606" inkscape:zoom="0.26339286" showgrid="false" id="namedview31" guidetolerance="10" gridtolerance="10" objecttolerance="10" borderopacity="1" bordercolor="#666666" pagecolor="#ffffff" inkscape:current-layer="svg2" inkscape:window-maximized="1" inkscape:window-y="24" inkscape:window-height="876" inkscape:window-width="1535" inkscape:pageshadow="2" inkscape:pageopacity="0" inkscape:window-x="65">
	</sodipodi:namedview>
<path id="path2998" d="M104.312,0v699.844H0v254.062h367.281V699.844H262.969V0H104.312z M520.75,0v451.75H416.344v254.062h367.312
	V451.75H679.312V0H520.75z M937.031,0v201.625H832.719v254.062H1200V201.625h-104.312V0H937.031z M885.938,252.031h260.844v50.438
	H885.938V252.031z M937.031,498.125V1200h158.656V498.125H937.031z M469.594,502.156h260.812v50.438H469.594V502.156z
	 M520.75,746.188V1200h158.562V746.188H520.75z M53.219,750.219h260.844v50.438H53.219V750.219z M104.344,996.312V1200H263V996.312
	H104.344z"/>
</svg>
